src/images_karasa_jaga_svg/cmd/32/fontworkshapetype.fontwork-wave.svg

<svg height="32" viewBox="0 0 32 32" width="32" xmlns="http://www.w3.org/2000/svg" xmlns:xlink="http://www.w3.org/1999/xlink"><linearGradient id="a" gradientUnits="userSpaceOnUse" x1="64" x2="64" y1="128" y2="0"><stop offset="0" stop-color="#fff"/><stop offset=".46428573" stop-color="#fff"/><stop offset=".78125" stop-color="#f1f1f1"/><stop offset=".90625" stop-color="#eaeaea"/><stop offset="1" stop-color="#dfdfdf"/></linearGradient><linearGradient id="b" gradientUnits="userSpaceOnUse" x1="64" x2="64" y1="128" y2="0"><stop offset="0" stop-color="#7c9fcf"/><stop offset=".5" stop-color="#7c9ece"/><stop offset="1" stop-color="#7b9dcf"/></linearGradient><g transform="scale(.25)"><path d="m39.160156 18.683594c-14.333855-.237812-25.518963 8.801109-32.9746091 12.628906a3.9727989 3.9727989 0 0 0 -2.1582031 3.533203v58.322266a3.9727989 3.9727989 0 0 0 7.2226562 2.283203c7.113796-10.126198 14.046563-12.511579 22.353516-11.5625 8.306953.949078 18.09259 6.072293 28.24414 12.617187l-.06445-.04102c14.477334 9.737331 26.41924 13.851161 36.736328 13.236331 10.317086-.61484 18.474876-6.20861 24.615236-14.0918a3.9727989 3.9727989 0 0 0 .83789-2.441406v-58.322261a3.9727989 3.9727989 0 0 0 -6.99024-2.583984c-7.08427 8.270856-14.31692 12.248191-22.300779 12.402343-7.983856.154153-17.310051-3.671265-28.109375-12.845703l.21289.195313c-9.587263-9.424492-19.024962-13.187396-27.625-13.330078z" fill="url(#b)"/><path d="m7.999999 34.846666v58.321905c15.435516-21.971826 35.378143-13.295297 56.000001 0 28.124979 18.916629 44.63117 14.595679 56 0v-58.321905c-15.1331 17.667831-33.512543 19.103952-56 0-24.149404-23.7394-43.011108-6.668616-56.000001 0z" fill="url(#a)"/></g></svg>

<?xml version="1.0" encoding="UTF-8" standalone="no"?>
<!-- Created with Inkscape (http://www.inkscape.org/) -->

<svg
   xmlns:dc="http://purl.org/dc/elements/1.1/"
   xmlns:cc="http://creativecommons.org/ns#"
   xmlns:rdf="http://www.w3.org/1999/02/22-rdf-syntax-ns#"
   xmlns:svg="http://www.w3.org/2000/svg"
   xmlns="http://www.w3.org/2000/svg"
   xmlns:xlink="http://www.w3.org/1999/xlink"
   xmlns:sodipodi="http://sodipodi.sourceforge.net/DTD/sodipodi-0.dtd"
   xmlns:inkscape="http://www.inkscape.org/namespaces/inkscape"
   version="1.1"
   id="svg2"
   width="128"
   height="128"
   viewBox="0 0 128 128"
   sodipodi:docname="fontworkshapetype.fontwork-wave.svg"
   inkscape:export-filename="/home/rizmut/Dokumen/Rizmut/Github/libreoffice-style-karasa-jaga/build/images_karasa_jaga/cmd/32/fontworkshapetype.fontwork-wave.png"
   inkscape:export-xdpi="24"
   inkscape:export-ydpi="24"
   inkscape:version="0.92.3 (unknown)">
  <metadata
     id="metadata8">
    <rdf:RDF>
      <cc:Work
         rdf:about="">
        <dc:format>image/svg+xml</dc:format>
        <dc:type
           rdf:resource="http://purl.org/dc/dcmitype/StillImage" />
        <dc:title></dc:title>
      </cc:Work>
    </rdf:RDF>
  </metadata>
  <defs
     id="defs6">
    <linearGradient
       id="linearGradient7422">
      <stop
         style="stop-color:#7c9fcf;stop-opacity:1"
         offset="0"
         id="stop7424" />
      <stop
         id="stop5348"
         offset="0.5"
         style="stop-color:#7c9ece;stop-opacity:1" />
      <stop
         id="stop7426"
         offset="1"
         style="stop-color:#7b9dcf;stop-opacity:1" />
    </linearGradient>
    <linearGradient
       id="linearGradient3369">
      <stop
         id="stop3372"
         offset="0"
         style="stop-color:#ffffff;stop-opacity:1;" />
      <stop
         style="stop-color:#ffffff;stop-opacity:1;"
         offset="0.46428573"
         id="stop3374" />
      <stop
         style="stop-color:#f1f1f1;stop-opacity:1;"
         offset="0.78125"
         id="stop3376" />
      <stop
         id="stop3378"
         offset="0.90625"
         style="stop-color:#eaeaea;stop-opacity:1;" />
      <stop
         id="stop3384"
         offset="1"
         style="stop-color:#dfdfdf;stop-opacity:1;" />
    </linearGradient>
    <linearGradient
       inkscape:collect="always"
       xlink:href="#linearGradient3369"
       id="linearGradient856"
       x1="64"
       y1="128"
       x2="64"
       y2="0"
       gradientUnits="userSpaceOnUse" />
    <linearGradient
       inkscape:collect="always"
       xlink:href="#linearGradient7422"
       id="linearGradient860"
       gradientUnits="userSpaceOnUse"
       x1="64"
       y1="128"
       x2="64"
       y2="0" />
  </defs>
  <sodipodi:namedview
     pagecolor="#ffffff"
     bordercolor="#666666"
     borderopacity="1"
     objecttolerance="10"
     gridtolerance="10"
     guidetolerance="10"
     inkscape:pageopacity="0"
     inkscape:pageshadow="2"
     inkscape:window-width="1366"
     inkscape:window-height="706"
     id="namedview4"
     showgrid="true"
     inkscape:snap-page="true"
     inkscape:snap-global="false"
     inkscape:zoom="1.2247144"
     inkscape:cx="-54.53946"
     inkscape:cy="32.518353"
     inkscape:window-x="0"
     inkscape:window-y="0"
     inkscape:window-maximized="1"
     inkscape:current-layer="svg2">
    <inkscape:grid
       type="xygrid"
       id="grid814"
       spacingx="4"
       spacingy="4"
       empspacing="2" />
  </sodipodi:namedview>
  <path
     sodipodi:type="inkscape:offset"
     inkscape:radius="3.9724016"
     inkscape:original="M 39.09375 22.65625 C 26.530408 22.447813 16.118058 30.677818 8 34.845703 L 8 93.167969 C 23.435516 71.196143 43.378142 79.872672 64 93.167969 C 92.124979 112.0846 108.63117 107.76365 120 93.167969 L 120 34.845703 C 104.8669 52.513534 86.487457 53.949655 64 34.845703 C 54.943973 25.943428 46.631755 22.781312 39.09375 22.65625 z "
     style="opacity:1;fill:url(#linearGradient860);fill-opacity:1;stroke:none;stroke-width:4.33507252;stroke-linecap:round;stroke-linejoin:bevel;stroke-miterlimit:4;stroke-dasharray:none;stroke-dashoffset:0;stroke-opacity:0.73039216"
     id="path858"
     d="M 39.160156,18.683594 C 24.826301,18.445782 13.641193,27.484703 6.1855469,31.3125 A 3.9727989,3.9727989 0 0 0 4.0273438,34.845703 V 93.167969 A 3.9727989,3.9727989 0 0 0 11.25,95.451172 c 7.113796,-10.126198 14.046563,-12.511579 22.353516,-11.5625 8.306953,0.949078 18.09259,6.072293 28.24414,12.617187 l -0.06445,-0.04102 c 14.477334,9.737336 26.41924,13.851166 36.736328,13.236326 10.317089,-0.61484 18.474879,-6.20861 24.615239,-14.091795 a 3.9727989,3.9727989 0 0 0 0.83789,-2.441406 V 34.845703 a 3.9727989,3.9727989 0 0 0 -6.99024,-2.583984 C 109.89815,40.532575 102.6655,44.50991 94.681641,44.664062 86.697785,44.818215 77.37159,40.992797 66.572266,31.818359 l 0.21289,0.195313 C 57.197893,22.58918 47.760194,18.826276 39.160156,18.683594 Z" />
  <path
     style="opacity:1;fill:url(#linearGradient856);fill-opacity:1;stroke:none;stroke-width:4.33507252;stroke-linecap:round;stroke-linejoin:bevel;stroke-miterlimit:4;stroke-dasharray:none;stroke-dashoffset:0;stroke-opacity:0.73039216"
     d="m 7.999999,34.846666 v 58.321905 c 15.435516,-21.971826 35.378143,-13.295297 56.000001,0 28.124979,18.916629 44.63117,14.595679 56,0 V 34.846666 c -15.1331,17.667831 -33.512543,19.103952 -56,0 -24.149404,-23.7394 -43.011108,-6.668616 -56.000001,0 z"
     id="rect3937"
     inkscape:connector-curvature="0"
     sodipodi:nodetypes="ccccccc" />
  <g
     id="g2040"
     transform="matrix(1,0,0,-1,-480,143.99876)" />
</svg>
